styles/3/Numix/22/places/custom-folder-rss.svg

<?xml version="1.0" encoding="UTF-8" standalone="no"?>
<!-- Created with Inkscape (http://www.inkscape.org/) -->

<svg
   xmlns:dc="http://purl.org/dc/elements/1.1/"
   xmlns:cc="http://creativecommons.org/ns#"
   xmlns:rdf="http://www.w3.org/1999/02/22-rdf-syntax-ns#"
   xmlns:svg="http://www.w3.org/2000/svg"
   xmlns="http://www.w3.org/2000/svg"
   xmlns:sodipodi="http://sodipodi.sourceforge.net/DTD/sodipodi-0.dtd"
   xmlns:inkscape="http://www.inkscape.org/namespaces/inkscape"
   width="22"
   height="22"
   id="svg2"
   version="1.1"
   inkscape:version="0.91 r"
   sodipodi:docname="custom-folder-rss.svg"
   inkscape:export-filename="/media/Data/Main/Visuals/Icons/Numix/Desktop/repos/numix-wiki/Gjorgi/Numix-folders/48/New/folder-144.png"
   inkscape:export-xdpi="270"
   inkscape:export-ydpi="270">
  <defs
     id="defs4" />
  <sodipodi:namedview
     id="base"
     pagecolor="#ffffff"
     bordercolor="#666666"
     borderopacity="1.0"
     inkscape:pageopacity="0.0"
     inkscape:pageshadow="2"
     inkscape:zoom="22.60317"
     inkscape:cx="13.022152"
     inkscape:cy="10.527152"
     inkscape:document-units="px"
     inkscape:current-layer="layer1"
     showgrid="true"
     inkscape:window-width="1280"
     inkscape:window-height="998"
     inkscape:window-x="0"
     inkscape:window-y="0"
     inkscape:window-maximized="1"
     showguides="true"
     inkscape:guide-bbox="true">
    <inkscape:grid
       type="xygrid"
       id="grid2985"
       empspacing="5"
       visible="true"
       enabled="true"
       snapvisiblegridlinesonly="true" />
  </sodipodi:namedview>
  <metadata
     id="metadata7">
    <rdf:RDF>
      <cc:Work
         rdf:about="">
        <dc:format>image/svg+xml</dc:format>
        <dc:type
           rdf:resource="http://purl.org/dc/dcmitype/StillImage" />
        <dc:title />
      </cc:Work>
    </rdf:RDF>
  </metadata>
  <g
     inkscape:label="Layer 1"
     inkscape:groupmode="layer"
     id="layer1"
     transform="translate(0,-1030.3622)">
    <rect
       style="fill:replacecolour2;fill-opacity:1;stroke:none"
       id="rect3757"
       width="20"
       height="5"
       x="0.99999928"
       y="1033.3622" />
    <path
       style="fill:replacecolour2;fill-opacity:1;stroke:none"
       d="m 3.9999992,1034.3622 c 0,-1 0,-2 0.909091,-2 l 3.1818188,0 c 0.90909,0 0.90909,1 0.90909,2 z"
       id="path3759"
       inkscape:connector-curvature="0"
       sodipodi:nodetypes="ccccc" />
    <path
       style="fill:#95989f;fill-opacity:1;stroke:none"
       d="m 2,1034.3622 17.999998,0 0,4 -17.999998,0 z"
       id="path3765"
       inkscape:connector-curvature="0" />
    <rect
       y="1034.3622"
       x="4.999999"
       height="6"
       width="14"
       id="rect3763"
       style="fill:#d8d8da;fill-opacity:1;stroke:none" />
    <rect
       style="fill:#f9f9f9;fill-opacity:1;stroke:none"
       id="rect3761"
       width="14"
       height="3.0000174"
       x="3"
       y="1035.3622" />
    <path
       style="fill:replacecolour1;fill-opacity:1;stroke:none"
       d="m 0,1036.3622 21.999999,0 -1,14 -19.9999994,0 z"
       id="path2987"
       inkscape:connector-curvature="0"
       sodipodi:nodetypes="ccccc" />
    <path
       style="fill:replacecolour3;fill-opacity:1;fill-rule:nonzero;stroke:none;opacity:1.0"
       d="M 6 8 L 6 10 C 10.227771 10.4668 14.016741 13.7979 14 18 L 16 18 C 16 11.9973 10.609318 8.19 6 8 z M 6 11 L 6 13 C 8.291105 13.1884 10.97445 15.3267 11 18 L 13 18 C 12.90035 13.9236 8.845905 11.2894 6 11 z M 7.5 15 C 6.6715729 15 6 15.671573 6 16.5 C 6 17.328427 6.6715729 18 7.5 18 C 8.3284271 18 9 17.328427 9 16.5 C 9 15.671573 8.3284271 15 7.5 15 z "
       transform="translate(0,1030.3622)"
       id="path3394" />
  </g>
</svg>

<!-- Created with Inkscape (http://www.inkscape.org/) -->
<svg xmlns="http://www.w3.org/2000/svg" viewBox="0 0 22 22">
 <g transform="translate(0,-1030.3622)">
  <rect width="20" height="5" x="1" y="1033.36" style="fill:replacecolour2;fill-opacity:1;stroke:none"/>
  <path d="m 4 1034.36 c 0 -1 0 -2 0.909 -2 l 3.182 0 c 0.909 0 0.909 1 0.909 2 z" style="fill:replacecolour2;fill-opacity:1;stroke:none"/>
  <path d="m 2 1034.36 18 0 0 4 -18 0 z" style="fill:#95989f;fill-opacity:1;stroke:none"/>
  <rect y="1034.36" x="5" height="6" width="14" style="fill:#d8d8da;fill-opacity:1;stroke:none"/>
  <rect width="14" height="3" x="3" y="1035.36" style="fill:#f9f9f9;fill-opacity:1;stroke:none"/>
  <path d="m 0 1036.36 22 0 -1 14 -20 0 z" style="fill:replacecolour1;fill-opacity:1;stroke:none"/>
  <path d="m 6 8 l 0 2 c 4.228 0.467 8.02 3.798 8 8 l 2 0 c 0 -6 -5.391 -9.81 -10 -10 z m 0 3 l 0 2 c 2.291 0.188 4.974 2.327 5 5 l 2 0 c -0.1 -4.076 -4.154 -6.711 -7 -7 z m 1.5 4 c -0.828 0 -1.5 0.672 -1.5 1.5 c 0 0.828 0.672 1.5 1.5 1.5 c 0.828 0 1.5 -0.672 1.5 -1.5 c 0 -0.828 -0.672 -1.5 -1.5 -1.5 z" transform="translate(0,1030.3622)" style="fill:replacecolour3;opacity:1;fill-opacity:1;stroke:none;fill-rule:nonzero"/>
 </g>
</svg>
